src/shared/svg/sidebar/Help.svg

<svg width="20" height="20" viewBox="0 0 20 20" fill="none" xmlns="http://www.w3.org/2000/svg">
<circle cx="10" cy="10" r="9" stroke="#8A8DBA" stroke-width="2"/>
<path d="M9.30365 11.7902V11.6493C9.30641 11.166 9.34922 10.7807 9.43208 10.4934C9.51771 10.2062 9.642 9.97418 9.80495 9.79741C9.96791 9.62064 10.164 9.46044 10.3933 9.31682C10.5645 9.20634 10.7178 9.09172 10.8531 8.97295C10.9885 8.85419 11.0962 8.72299 11.1763 8.57937C11.2564 8.43298 11.2964 8.27002 11.2964 8.09049C11.2964 7.89992 11.2509 7.73282 11.1597 7.58919C11.0686 7.44557 10.9457 7.33509 10.791 7.25775C10.6391 7.18042 10.4706 7.14175 10.2855 7.14175C10.106 7.14175 9.93615 7.1818 9.77595 7.2619C9.61576 7.33923 9.48456 7.45524 9.38237 7.60991C9.28017 7.76182 9.22494 7.95101 9.21665 8.1775H7.52631C7.54012 7.6251 7.67269 7.16937 7.92404 6.81031C8.17538 6.44849 8.5082 6.17919 8.9225 6.00243C9.3368 5.8229 9.79391 5.73313 10.2938 5.73313C10.8435 5.73313 11.3296 5.82428 11.7522 6.00657C12.1747 6.1861 12.5062 6.44711 12.7465 6.78959C12.9868 7.13208 13.1069 7.545 13.1069 8.02835C13.1069 8.3515 13.0531 8.63875 12.9453 8.89009C12.8404 9.13867 12.6926 9.35963 12.502 9.55297C12.3115 9.74355 12.0864 9.91617 11.8267 10.0708C11.6085 10.2007 11.429 10.336 11.2881 10.4769C11.15 10.6177 11.0465 10.7807 10.9774 10.9657C10.9111 11.1508 10.8766 11.3786 10.8738 11.6493V11.7902H9.30365ZM10.124 14.4417C9.84776 14.4417 9.61161 14.345 9.41551 14.1517C9.22217 13.9556 9.12688 13.7208 9.12965 13.4474C9.12688 13.1767 9.22217 12.9447 9.41551 12.7514C9.61161 12.558 9.84776 12.4614 10.124 12.4614C10.3864 12.4614 10.617 12.558 10.8158 12.7514C11.0147 12.9447 11.1155 13.1767 11.1183 13.4474C11.1155 13.6297 11.0672 13.7968 10.9733 13.9487C10.8821 14.0978 10.762 14.218 10.6128 14.3091C10.4637 14.3975 10.3007 14.4417 10.124 14.4417Z" fill="#8A8DBA"/>
</svg>

<svg width="20" height="20" viewBox="0 0 20 20" fill="none" xmlns="http://www.w3.org/2000/svg"><circle cx="10" cy="10" r="9" stroke="#8A8DBA" stroke-width="2"/><path d="M9.304 11.79v-.14c.002-.484.045-.87.128-1.157.086-.287.21-.519.373-.696.163-.176.359-.337.588-.48.171-.11.325-.225.46-.344.136-.119.243-.25.323-.394a1 1 0 0 0 .12-.489.915.915 0 0 0-.136-.5.91.91 0 0 0-.369-.332 1.098 1.098 0 0 0-.505-.116c-.18 0-.35.04-.51.12a.973.973 0 0 0-.394.348 1.067 1.067 0 0 0-.165.567h-1.69c.013-.552.146-1.008.397-1.367.251-.362.584-.63.998-.808a3.41 3.41 0 0 1 1.372-.269c.55 0 1.036.091 1.458.274.423.18.754.44.994.783.24.342.36.755.36 1.238 0 .323-.053.61-.16.862-.106.249-.253.47-.444.663-.19.19-.416.363-.675.518-.219.13-.398.265-.539.406a1.38 1.38 0 0 0-.31.489 2.092 2.092 0 0 0-.104.683v.141h-1.57Zm.82 2.652a.973.973 0 0 1-.708-.29.953.953 0 0 1-.286-.705.935.935 0 0 1 .286-.696.972.972 0 0 1 .708-.29c.262 0 .493.097.692.29a.95.95 0 0 1 .157 1.198 1.06 1.06 0 0 1-.36.36.941.941 0 0 1-.489.133Z" fill="#8A8DBA"/></svg>
